!!!COM: Bach, Johann Sebastian
!!!CDT: 1685/3//-1750/7/28/
!!!OTL@@DE: Ich dank' dir, Gott, fuer all' Wohltat
!!!AGN: 4-Part Chorale
!!!SCT: BH 223
!!!SCT: BWV 346
**harm	**root	**kern	**kern	**kern	**kern
!	!	!bass	!tenor	!alto	!soprno
*	*Iorgan	*Iorgan	*Iorgan	*Iorgan	*Iorgan
*M4/4	*M4/4	*M4/4	*M4/4	*M4/4	*M4/4
*met(c)	*met(c)	*met(c)	*met(c)	*met(c)	*met(c)
*MM60	*MM60	*MM60	*MM60	*MM60	*MM60
*k[f#c#]	*k[f#c#]	*k[f#c#]	*k[f#c#]	*k[f#c#]	*k[f#c#]
*D:	*D:	*D:	*D:	*D:	*D:
I;	4CC;	4D	8F#	4d	4a
.	.	.	8G	.	.
=1	=1	=1	=1	=1	=1
V7d/IV	4CC	4C	4A	4d	4f#
viib/V	4FF#	4BB	4B	4d	4g#
V;	4GG;	4AA;	4E;	4c#;	4a;
Vb	4GG	4C#	4A	[4e	4a
=2	=2	=2	=2	=2	=2
I	4CC	4D	[4A	8e]	4f#
.	.	.	.	4d	.
V	4GG	4AA	8.A]	.	4e
.	.	.	.	8c#	.
.	.	.	16G	.	.
I;	4CC;	4DD;	4F#;	4A;	4d;
I	4CC	4D	4F#	4A	4d
=3	=3	=3	=3	=3	=3
Vb	4GG	4C#	4A	4e	4a
I	4CC	8D	4d	[4f#	4a
.	.	8C#	.	.	.
viib/V	4FF#	4BB	4d	8f#]	4b
.	.	.	.	8g#	.
V	4GG	4AA	4e	[4a	4cc#
=4	=4	=4	=4	=4	=4
Ib	4CC	4F#	4d	8a]	4dd
.	.	.	.	8g#	.
Ic/V	4GG	4E	4e	[4a	4cc#
ii7b/V	4AA	4D	4f#	4a_	4b
V/V	4DD	4E	8.e	8a]	4b
.	.	.	.	8g#	.
.	.	.	16d	.	.
=5	=5	=5	=5	=5	=5
V;	2GG;	2AA;	2c#;	2e;	2a;
r	4r	4r	4r	4r	4r
Ib	4CC	4F#	4d	[4f#	4a
!!linebreak: 3
=6	=6	=6	=6	=6	=6
ii7b	4DD	4G	4d	8f#]	4b
.	.	.	.	[8e	.
V7b/vi	4EE	4AA#	4c#	8e]	4cc#
.	.	.	.	8f#	.
vi;	4AA;	4BB;	4B;	4f#;	4dd;
I	4CC	4D	4F#	[4d	4a
=7	=7	=7	=7	=7	=7
IV	4FF	4.G	4G	8d]	4b
.	.	.	.	8c#	.
Ib	8CC	.	4A	8d	4a
viib/ii	8CC#	8F#	.	8d#	.
ii	4DD	8E	4B	8e	4g
.	.	8F#	.	8d#	.
iib	4DD	8G	4B	[4e	4g
.	.	8E	.	.	.
=8	=8	=8	=8	=8	=8
VI;	2AA;	2B;	2B;	4e]	2f#;
.	.	.	.	4d#;	.
r	4r	4r	4r	4r	4r
Ib	4CC	4F#	4d	[4a	4dd
=9	=9	=9	=9	=9	=9
IV	4FF	8G	4d	8a]	4b
.	.	8F#	.	16g	.
.	.	.	.	16f#	.
viib	4BB	4E	4e	4g	4cc#
I;	4CC;	4D;	4A;	4f#;	4dd;
ii	4DD	[4E	8e	4g	4b
.	.	.	8d	.	.
=10	=10	=10	=10	=10	=10
viioD7/ii	4CC#	8E]	4c	[4f#	4a
.	.	8D#	.	.	.
ii	4DD	4E	4B	8f#]	4g
.	.	.	.	[8e	.
VI;	4AA;	4BB;	4B;	8e]	4f#;
.	.	.	.	8d#;	.
Vb	4GG	4C#	[4A	4e	4a
!!linebreak: 3
=11	=11	=11	=11	=11	=11
V7b/ii	4AA	4D#	8A]	4f#	4f#
.	.	.	[8B	.	.
V7b/ii	4AA	4E#	8B]	4c#	4g#
.	.	.	16A	.	.
.	.	.	16G#	.	.
iii;	4EE;	4F#;	4F#;	4c#;	4a;
Ib	8CC	8F#	8f#	8a	4dd
V7b/V	8DD	8G#	8e	[8b	.
=12	=12	=12	=12	=12	=12
V	4GG	4A	4e	8b]	4cc#
.	.	.	.	4a	.
V/V	4DD	4E	8.e	.	4b
.	.	.	.	8g#	.
.	.	.	16d	.	.
V;	4GG;	4AA;	4c#;	4e;	4a;
Vb	4GG	4C#	4A	4e	4a
=13	=13	=13	=13	=13	=13
I	4CC	8D	4A	4d	8f#
.	.	8E	.	.	8g
Ib	8CC	8F#	8d	4d	4a
V7/IV	8CC	8D	8c	.	.
IV	4FF	4G	8.B	8d	4b
.	.	.	.	4g	.
.	.	.	16c#	.	.
V/IV	4CC	[4D	8.d	.	4a
.	.	.	.	8f#	.
.	.	.	16c	.	.
=14	=14	=14	=14	=14	=14
ii7d	8DD	8D]	8B	4.e	4g
V7b	8GG	8C#	8A	.	.
I	4CC	4D	4A	.	4f#
.	.	.	.	[8d	.
ii7b	8DD	4GG	8B	8d]	4e
viic	8BB	.	8E	16c#	.
.	.	.	.	16B	.
V	4GG	4AA	8A	4c#	4e
.	.	.	8G	.	.
=15	=15	=15	=15	=15	=15
I;	1CC;	1DD;	1F#;	1A;	1d;
==	==	==	==	==	==
*-	*-	*-	*-	*-	*-
!!chor2scor: -l 3 -s 0.6 -o %b.pmx
!!!YEC: Copyright 1994, David Huron
!!!YEC: Changes/Additions 2001 by Craig Stuart Sapp
!!!YEN: United States of America
!!!SMA: 371 Bach Chorales, edited by Ludwig Erk, C.F. Peters
!!!PDT: 1850, 1865
!!!ONB: Harmony and Root analysis done manually
